X: 6
T: Balance The Straw
Z: ceolachan
S: https://thesession.org/tunes/13387#setting23549
R: reel
M: 4/4
L: 1/8
K: Gmaj
|: e/d/c |B2 B>^A B/c/d c>B | A2 A>^G A2 =G/A/B/c/ | d2 c>B c/B/A FD | G2 G>G G2 :|
g>f |e2- e>d d2 G>B | c2- c>B B2 b/a/g/f/ | e2 d>d dG- GB | A>^GAB D2 d>c |
B2 B/B/B B>g d/c/B | A2 A>^G A/B/c Ad | e/f/g d>B A/B/c BA | G2 G>G G2 |]
